X:15
T:The Lad wi' the Plaidie
Z:Jack Campin, 2006, http://www.campin.me.uk/
M:4/4
L:1/8
Q:1/4=120
K:D
f>g`f>e d>e`d>B|A>F`A>d c<e e2 |f>g`f>e d>ed>B|c>de>a f<dd2:|
A2(3FED F<A`A>d|B>A`B>d c<e e2 |A2(3FED F<AA>d|c>de>a f<dd2:|
f2(3agf e2(3gfe|d2(3fed c2(3edc|B2(3dcB A2 f>a|g>fe>a f<aa2 |
f2(3agf e2(3gfe|d2(3fed c2(3edc|B2(3dcB A2 f>a|g>fe>a f<dd2|]
